app/icons/logo.svg

<?xml version="1.0" encoding="UTF-8"?>
<svg xmlns="http://www.w3.org/2000/svg" xmlns:xlink="http://www.w3.org/1999/xlink" width="2000px" height="1250px" viewBox="0 0 118 74" version="1.1">
<defs>
<clipPath id="clip1">
  <path d="M 39.03125 27.117188 L 78.96875 27.117188 L 78.96875 46.886719 L 39.03125 46.886719 Z M 39.03125 27.117188 "/>
</clipPath>
<clipPath id="clip2">
  <path d="M 42.664062 30.757812 L 75.335938 30.757812 L 75.335938 43.238281 L 42.664062 43.238281 Z M 42.664062 30.757812 "/>
</clipPath>
</defs>
<g id="surface1">
<path style=" stroke:none;fill-rule:nonzero;fill:rgb(97.647059%,80%,4.313725%);fill-opacity:1;" d="M 27.066406 18.5 L 59 0 L 90.933594 18.5 L 90.933594 55.5 L 59 74 L 27.066406 55.5 Z M 27.527344 55.230469 L 59 73.464844 L 90.472656 55.230469 L 90.472656 18.769531 L 59 0.535156 L 27.527344 18.769531 Z M 27.527344 55.230469 "/>
<g clip-path="url(#clip1)" clip-rule="nonzero">
<path style=" stroke:none;fill-rule:nonzero;fill:rgb(97.647059%,80%,4.313725%);fill-opacity:1;" d="M 39.03125 46.882812 L 39.03125 27.117188 L 78.96875 27.117188 L 78.96875 46.882812 Z M 39.03125 46.882812 "/>
<path style=" stroke:none;fill-rule:nonzero;fill:rgb(4.705882%,11.372549%,21.176471%);fill-opacity:1;" d="M 39.636719 46.277344 L 39.636719 27.722656 L 78.363281 27.722656 L 78.363281 46.277344 Z M 39.636719 46.277344 "/>
</g>
<path style=" stroke:none;fill-rule:nonzero;fill:rgb(97.647059%,80%,4.313725%);fill-opacity:1;" d="M 40.847656 45.0625 L 40.847656 28.9375 L 77.152344 28.9375 L 77.152344 45.0625 Z M 40.847656 45.0625 "/>
<g clip-path="url(#clip2)" clip-rule="nonzero">
<path style=" stroke:none;fill-rule:nonzero;fill:rgb(4.705882%,11.372549%,21.176471%);fill-opacity:1;" d="M 50.523438 30.757812 L 51.445312 30.757812 L 51.445312 43.242188 L 50.523438 43.242188 L 50.523438 37.410156 L 43.582031 37.410156 L 43.582031 43.242188 L 42.664062 43.242188 L 42.664062 30.757812 L 43.582031 30.757812 L 43.582031 36.523438 L 50.523438 36.523438 Z M 62.832031 30.757812 L 62.832031 31.648438 L 58.910156 31.648438 L 58.910156 43.242188 L 57.992188 43.242188 L 57.992188 31.648438 L 54.070312 31.648438 L 54.070312 30.757812 Z M 69.476562 30.757812 C 71.414062 30.757812 72.875 31.289062 73.859375 32.347656 C 74.84375 33.40625 75.335938 34.964844 75.335938 37.015625 C 75.335938 39.082031 74.84375 40.632812 73.867188 41.675781 C 72.886719 42.71875 71.425781 43.242188 69.476562 43.242188 L 65.457031 43.242188 L 65.457031 30.757812 Z M 69.476562 42.382812 C 71.097656 42.382812 72.320312 41.949219 73.144531 41.082031 C 73.96875 40.214844 74.382812 38.84375 74.382812 36.96875 C 74.382812 35.132812 73.96875 33.785156 73.136719 32.917969 C 72.304688 32.050781 71.085938 31.617188 69.476562 31.617188 L 66.375 31.617188 L 66.375 42.382812 Z M 69.476562 42.382812 "/>
</g>
</g>
</svg>

<svg xmlns="http://www.w3.org/2000/svg" width="2000" height="1250" viewBox="0 0 118 74"><defs><clipPath id="a"><path d="M39.031 27.117H78.97v19.77H39.03zm0 0"/></clipPath><clipPath id="b"><path d="M42.664 30.758h32.672v12.48H42.664zm0 0"/></clipPath></defs><path style="stroke:none;fill-rule:nonzero;fill:#f9cc0b;fill-opacity:1" d="M27.066 18.5 59 0l31.934 18.5v37L59 74 27.066 55.5zm.461 36.73L59 73.465 90.473 55.23V18.77L59 .535 27.527 18.77zm0 0"/><g clip-path="url(#a)"><path style="stroke:none;fill-rule:nonzero;fill:#f9cc0b;fill-opacity:1" d="M39.031 46.883V27.117H78.97v19.766zm0 0"/><path style="stroke:none;fill-rule:nonzero;fill:#0c1d36;fill-opacity:1" d="M39.637 46.277V27.723h38.726v18.554zm0 0"/></g><path style="stroke:none;fill-rule:nonzero;fill:#f9cc0b;fill-opacity:1" d="M40.848 45.063V28.936h36.304v16.125zm0 0"/><g clip-path="url(#b)"><path style="stroke:none;fill-rule:nonzero;fill:#0c1d36;fill-opacity:1" d="M50.523 30.758h.922v12.484h-.922V37.41h-6.941v5.832h-.918V30.758h.918v5.765h6.941zm12.309 0v.89H58.91v11.594h-.918V31.648H54.07v-.89zm6.645 0c1.937 0 3.398.531 4.382 1.59.985 1.058 1.477 2.617 1.477 4.668 0 2.066-.492 3.617-1.469 4.66-.98 1.043-2.441 1.566-4.39 1.566h-4.02V30.758zm0 11.625c1.62 0 2.843-.434 3.668-1.301.824-.867 1.238-2.238 1.238-4.113 0-1.836-.414-3.184-1.246-4.051-.832-.867-2.051-1.3-3.66-1.3h-3.102v10.765zm0 0"/></g></svg>
